X: 5
T: Rolling In The Ryegrass
R: reel
M: 4/4
L: 1/8
K: Dmaj
~A3 F DFAF|G2BG DGBG|ABAF DFAF|GBAF EGD2|
ABAF DFAF|G2BG DGBG|FAAF DFAF|GBAF EGD2:|
ABde ~f3a|~g3e fedB|ABde f2df|afdf efd2|
ABde ~f3a|g2 ge fedB|ABde f2df|afdf efd2:|


Tune 87	Setting 29390

